src/assets/secure-payments-minimalistic.svg

<svg width="316" height="272" viewBox="0 0 316 272" fill="none" xmlns="http://www.w3.org/2000/svg">
<path d="M271.599 0H43.9429C19.7161 0 0 19.7161 0 43.9429V191.866C0 216.093 19.7161 235.809 43.9429 235.809H169.63C174.893 235.809 179.16 231.542 179.16 226.28C179.16 221.017 174.893 216.75 169.63 216.75H43.9429C30.22 216.75 19.0596 205.589 19.0596 191.866V115.31H296.482V131.617C296.482 136.88 300.75 141.147 306.012 141.147C311.275 141.147 315.542 136.88 315.542 131.617V43.9535C315.542 19.7267 295.826 0 271.599 0ZM43.9429 19.0702H271.599C285.322 19.0702 296.482 30.2306 296.482 43.9535V53.0068H19.0596V43.9535C19.0596 30.2306 30.22 19.0702 43.9429 19.0702ZM19.0596 96.2403V72.077H296.482V96.2403H19.0596Z" fill="url(#paint0_linear_1065_2099)"/>
<path d="M55.1421 154.349H84.335C89.5976 154.349 93.8648 150.082 93.8648 144.819C93.8648 139.557 89.5976 135.29 84.335 135.29H55.1421C49.8795 135.29 45.6123 139.557 45.6123 144.819C45.6123 150.082 49.8795 154.349 55.1421 154.349ZM55.1421 190.234H113.528C118.791 190.234 123.058 185.967 123.058 180.704C123.058 175.442 118.791 171.174 113.528 171.174H55.1421C49.8795 171.174 45.6123 175.442 45.6123 180.704C45.6123 185.967 49.8795 190.234 55.1421 190.234ZM263.654 187.661L246.596 201.416L242.89 196.693C239.649 192.574 233.646 191.822 229.506 195.084C225.365 198.334 224.635 204.317 227.885 208.468L237.553 220.793C239.131 222.794 241.439 224.097 243.97 224.383C244.33 224.425 244.69 224.446 245.05 224.446C247.22 224.446 249.327 223.705 251.032 222.339L275.609 202.528C279.706 199.213 280.352 193.22 277.049 189.122C273.755 185.003 267.752 184.368 263.654 187.661Z" fill="url(#paint1_linear_1065_2099)"/>
<path d="M304.222 161.561L261.74 140.204C255.948 137.302 249.066 137.292 243.284 140.214L200.824 161.55C193.761 165.087 189.325 172.488 189.494 180.398C189.939 200.665 195.868 249.923 241.135 269.586C244.746 271.153 248.632 271.948 252.518 271.948C256.404 271.948 260.279 271.164 263.89 269.586C309.156 249.934 315.086 200.665 315.531 180.409C315.721 172.499 311.274 165.097 304.222 161.561ZM256.298 252.115C253.894 253.153 251.141 253.153 248.727 252.115C213.551 236.846 208.903 196.588 208.543 179.985C208.532 179.382 208.839 178.852 209.369 178.577L251.819 157.241C252.041 157.135 252.274 157.071 252.507 157.071C252.74 157.071 252.962 157.124 253.174 157.23L295.656 178.587C296.175 178.842 296.482 179.371 296.471 179.985C296.111 196.588 291.463 236.836 256.298 252.115Z" fill="url(#paint2_linear_1065_2099)"/>
<defs>
<linearGradient id="paint0_linear_1065_2099" x1="157.771" y1="0" x2="157.771" y2="235.809" gradientUnits="userSpaceOnUse">
<stop stop-color="#024EC9"/>
<stop offset="1" stop-color="#024EC9"/>
</linearGradient>
<linearGradient id="paint1_linear_1065_2099" x1="162.386" y1="135.29" x2="162.386" y2="224.446" gradientUnits="userSpaceOnUse">
<stop stop-color="#024EC9"/>
<stop offset="1" stop-color="#024EC9"/>
</linearGradient>
<linearGradient id="paint2_linear_1065_2099" x1="252.513" y1="138.025" x2="252.513" y2="271.948" gradientUnits="userSpaceOnUse">
<stop stop-color="#024EC9"/>
<stop offset="1" stop-color="#024EC9"/>
</linearGradient>
</defs>
</svg>

<svg width="316" height="272" fill="none" xmlns="http://www.w3.org/2000/svg"><path d="M271.599 0H43.943C19.716 0 0 19.716 0 43.943v147.923c0 24.227 19.716 43.943 43.943 43.943H169.63a9.53 9.53 0 000-19.059H43.943c-13.723 0-24.883-11.161-24.883-24.884V115.31h277.422v16.307a9.53 9.53 0 0019.06 0V43.954C315.542 19.726 295.826 0 271.599 0zM43.943 19.07h227.656c13.723 0 24.883 11.16 24.883 24.883v9.054H19.06v-9.053c0-13.723 11.16-24.884 24.883-24.884zM19.06 96.24V72.077h277.422V96.24H19.06z" fill="url(#paint0_linear_1065_2099)"/><path d="M55.142 154.349h29.193a9.53 9.53 0 000-19.059H55.142a9.53 9.53 0 000 19.059zm0 35.885h58.386a9.53 9.53 0 000-19.06H55.142a9.53 9.53 0 000 19.06zm208.512-2.573l-17.058 13.755-3.706-4.723c-3.241-4.119-9.244-4.871-13.384-1.609a9.533 9.533 0 00-1.621 13.384l9.668 12.325a9.553 9.553 0 007.497 3.653c2.17 0 4.277-.741 5.982-2.107l24.577-19.811c4.097-3.315 4.743-9.308 1.44-13.406-3.294-4.119-9.297-4.754-13.395-1.461z" fill="url(#paint1_linear_1065_2099)"/><path d="M304.222 161.561l-42.482-21.357c-5.792-2.902-12.674-2.912-18.456.01l-42.46 21.336c-7.063 3.537-11.499 10.938-11.33 18.848.445 20.267 6.374 69.525 51.641 89.188a28.628 28.628 0 0011.383 2.362c3.886 0 7.761-.784 11.372-2.362 45.266-19.652 51.196-68.921 51.641-89.177.19-7.91-4.257-15.312-11.309-18.848zm-47.924 90.554a9.593 9.593 0 01-7.571 0c-35.176-15.269-39.824-55.527-40.184-72.13a1.523 1.523 0 01.826-1.408l42.45-21.336c.222-.106.455-.17.688-.17.233 0 .455.053.667.159l42.482 21.357c.519.255.826.784.815 1.398-.36 16.603-5.008 56.851-40.173 72.13z" fill="url(#paint2_linear_1065_2099)"/><defs><linearGradient id="paint0_linear_1065_2099" x1="157.771" y1="0" x2="157.771" y2="235.809" gradientUnits="userSpaceOnUse"><stop stop-color="#024EC9"/><stop offset="1" stop-color="#024EC9"/></linearGradient><linearGradient id="paint1_linear_1065_2099" x1="162.386" y1="135.29" x2="162.386" y2="224.446" gradientUnits="userSpaceOnUse"><stop stop-color="#024EC9"/><stop offset="1" stop-color="#024EC9"/></linearGradient><linearGradient id="paint2_linear_1065_2099" x1="252.513" y1="138.025" x2="252.513" y2="271.948" gradientUnits="userSpaceOnUse"><stop stop-color="#024EC9"/><stop offset="1" stop-color="#024EC9"/></linearGradient></defs></svg>
